X:1
T:Edinburgh, 11.11.11.11
T:Edinburgh, 11.11.11.11
T:Modern Harp, 19th Century
T:Public Domain Courtesy of the Cyber Hymnal™
C:Modern Harp, 19th Century
Z:Public Domain
Z:Courtesy of the Cyber Hymnal™
%%score ( 1 2 ) ( 3 4 )
L:1/8
M:3/4
K:Eb
V:1 treble 
V:2 treble 
V:3 bass 
V:4 bass 
V:1
 [GB]2 | [GB]2 [EG]2 [FA]2 | [GB]2 [EG]2 E2 | [DF]2 [CE]2 [DF]2 | [EG]4 [EG]2 | [EA]2 [EA]2 [Ac]2 | %6
 [GB]2 [GB]2 [EG]2 | [DF]2 [FA]2 [EG]2 | [DF]4 ([EG][FA]) | [GB]2 [EG]2 [FA]2 | %10
 [GB]2 [Ge]2 [GB]2 x6 | [Ac]2 [EA]2 [Ac]2 | [GB]4 [EG]2 | ([DF][EG]) ([FA][GB]) ([Ac][Fd]) | %14
 [Ee]2 E2 ([GB][FA]) | [EG]2 [EG]2 [DF]2 | E4 |] %17
V:2
 x2 | x6 | x4 E2 | x6 | x6 | x6 | x6 | x6 | x6 | x6 | x12 | x6 | x6 | x6 | x2 E2 x2 | x6 | E4 |] %17
V:3
 [E,B,]2 | [E,B,]2 [E,B,]2 [E,B,]2 | [E,B,]2 [E,B,]2 [E,G,]2 | [B,,B,]2 [B,,B,]2 [B,,B,]2 | %4
 [E,B,]4 [E,B,]2 | [A,C]2 [A,C]2 [A,E]2 | [E,E]2 [E,E]2 [E,B,]2 | [B,,B,]2 [D,B,]2 [E,B,]2 | %8
 [B,,B,]4 [E,B,]2 | [E,B,]2 [E,B,]2 [E,B,]2 | [E,B,]2 [E,B,]2 [E,E]2 [A,E]2 [A,C]2 [A,,E]2 | %11
 [E,E]4 [E,B,]2 | [B,,B,]2 [B,,B,]2 (B,A,) | [C,G,]2 [C,G,]2 [A,,C]2 | [B,,B,]2 [B,,B,]2 [B,,B,]2 | %15
 [E,G,]4 x2 | x4 |] %17
V:4
 x2 | x6 | x6 | x6 | x6 | x6 | x6 | x6 | x6 | x6 | x12 | x6 | x4 B,,2 | x6 | x6 | x6 | x4 |] %17

